src/assets/img/custom-paperwallet/icon-light.svg

<?xml version="1.0" encoding="UTF-8"?>
<svg width="16px" height="16px" viewBox="0 0 16 16" version="1.1" xmlns="http://www.w3.org/2000/svg" xmlns:xlink="http://www.w3.org/1999/xlink">
    <!-- Generator: Sketch 61.2 (89653) - https://sketch.com -->
    <title>icon-light</title>
    <desc>Created with Sketch.</desc>
    <g id="Page-2" stroke="none" stroke-width="1" fill="none" fill-rule="evenodd">
        <g id="icon-light" transform="translate(-0.000000, 0.000000)" fill="#FFFFFF">
            <path d="M8,13 C8.27614237,13 8.5,13.2238576 8.5,13.5 L8.5,15.5 C8.5,15.7761424 8.27614237,16 8,16 C7.72385763,16 7.5,15.7761424 7.5,15.5 L7.5,13.5 C7.5,13.2238576 7.72385763,13 8,13 Z M4.46446609,11.5355339 C4.65972824,11.7307961 4.65972824,12.0473785 4.46446609,12.2426407 L3.05025253,13.6568542 C2.85499039,13.8521164 2.5384079,13.8521164 2.34314575,13.6568542 C2.1478836,13.4615921 2.1478836,13.1450096 2.34314575,12.9497475 L3.75735931,11.5355339 C3.95262146,11.3402718 4.26920395,11.3402718 4.46446609,11.5355339 Z M12.2426407,11.5355339 L13.6568542,12.9497475 C13.8521164,13.1450096 13.8521164,13.4615921 13.6568542,13.6568542 C13.4615921,13.8521164 13.1450096,13.8521164 12.9497475,13.6568542 L11.5355339,12.2426407 C11.3402718,12.0473785 11.3402718,11.7307961 11.5355339,11.5355339 C11.7307961,11.3402718 12.0473785,11.3402718 12.2426407,11.5355339 Z M8,4 C10.209139,4 12,5.790861 12,8 C12,10.209139 10.209139,12 8,12 C5.790861,12 4,10.209139 4,8 C4,5.790861 5.790861,4 8,4 Z M2.5,7.5 C2.77614237,7.5 3,7.72385763 3,8 C3,8.27614237 2.77614237,8.5 2.5,8.5 L0.5,8.5 C0.223857625,8.5 -1.3500312e-13,8.27614237 -1.3500312e-13,8 C-1.3500312e-13,7.72385763 0.223857625,7.5 0.5,7.5 L2.5,7.5 Z M15.5,7.5 C15.7761424,7.5 16,7.72385763 16,8 C16,8.27614237 15.7761424,8.5 15.5,8.5 L13.5,8.5 C13.2238576,8.5 13,8.27614237 13,8 C13,7.72385763 13.2238576,7.5 13.5,7.5 L15.5,7.5 Z M13.6568542,2.34314575 C13.8521164,2.5384079 13.8521164,2.85499039 13.6568542,3.05025253 L12.2426407,4.46446609 C12.0473785,4.65972824 11.7307961,4.65972824 11.5355339,4.46446609 C11.3402718,4.26920395 11.3402718,3.95262146 11.5355339,3.75735931 L12.9497475,2.34314575 C13.1450096,2.1478836 13.4615921,2.1478836 13.6568542,2.34314575 Z M3.05025253,2.34314575 L4.46446609,3.75735931 C4.65972824,3.95262146 4.65972824,4.26920395 4.46446609,4.46446609 C4.26920395,4.65972824 3.95262146,4.65972824 3.75735931,4.46446609 L2.34314575,3.05025253 C2.1478836,2.85499039 2.1478836,2.5384079 2.34314575,2.34314575 C2.5384079,2.1478836 2.85499039,2.1478836 3.05025253,2.34314575 Z M8,0 C8.27614237,-5.07265313e-17 8.5,0.223857625 8.5,0.5 L8.5,2.5 C8.5,2.77614237 8.27614237,3 8,3 C7.72385763,3 7.5,2.77614237 7.5,2.5 L7.5,0.5 C7.5,0.223857625 7.72385763,5.07265313e-17 8,0 Z"></path>
        </g>
    </g>
</svg>

<svg xmlns="http://www.w3.org/2000/svg" width="16" height="16"><path d="M8 13a.5.5 0 0 1 .5.5v2a.5.5 0 1 1-1 0v-2A.5.5 0 0 1 8 13zm-3.536-1.464a.5.5 0 0 1 0 .707L3.05 13.657a.5.5 0 0 1-.707-.707l1.414-1.414a.5.5 0 0 1 .707 0zm7.778 0l1.414 1.414a.5.5 0 0 1-.707.707l-1.414-1.414a.5.5 0 1 1 .707-.707zM8 4a4 4 0 1 1 0 8 4 4 0 1 1 0-8zM2.5 7.5a.5.5 0 1 1 0 1h-2a.5.5 0 1 1 0-1h2zm13 0a.5.5 0 1 1 0 1h-2a.5.5 0 1 1 0-1h2zm-1.843-5.157a.5.5 0 0 1 0 .707l-1.414 1.414a.5.5 0 0 1-.707-.707l1.414-1.414a.5.5 0 0 1 .707 0zm-10.607 0l1.414 1.414a.5.5 0 0 1-.707.707L2.343 3.05a.5.5 0 0 1 .707-.707zM8 0a.5.5 0 0 1 .5.5v2a.5.5 0 1 1-1 0v-2A.5.5 0 0 1 8 0z" fill="#fff" fill-rule="evenodd"/></svg>
